X: 1
T: Ma Yofus
T: Yoshke
T: Tanz, Tanz, Yideleh
C: trad. arr. Shana Aisenberg
R: hymn, freilach, bulgar
S: Fiddle Hell Online 2020-11-09
S: Fiddle Hell Online 2022-4-2 handout for Shana Aisenberg workshop
Z: 2020 John Chambers <jc:trillian.mit.edu>
M: 2/4
L: 1/16
K: Dphr	% D freigish, Bb major, G minor
"^A"|:\
"D"DE^FG ABAG | ^F2FD "Gm"G4 | "D"A2A2 cBAG | ^F2FD "Gm"G4 |
"D"DE^FG ABAG | ^F2FD "Gm"G4 | "D"^F2F2 "Cm"EDEC | "Gm"G8 :|
"^B"|:\
"Bb"Bcd2 d4 | "F"cdcA F4 | FGAB cdec | "Bb"d4 "D"dcBA |
"Gm"GAB2 B2B2 | "D"A2d2D4 | DE^FG ABAF | [1 "Gm"G6 "(F)"F2 :|[2 "Gm"G6 G^F |
"^C"|:\
"D"D2^F2 D2F2 | "Gm"G2G2 cBAG | "D"^F2F2 "Cm"GFGB | "D"A4 d4 |
"D"D2^F2 D2F2 | "Gm"G2G2 cBAG | "D"^F2F2 "Cm"EDEC | "D"D8 :|
